src/assets/duotone/FolderConnection.svg

<?xml version="1.0" encoding="UTF-8"?>
<svg width="24" height="24" viewBox="0 0 24 24" xmlns="http://www.w3.org/2000/svg">
 <path d="m18.75 21c0 0.41-0.34 0.75-0.75 0.75h-4c-0.05 0-0.09-0.02-0.14-0.03-0.29 0.75-1.01 1.28-1.86 1.28s-1.57-0.53-1.86-1.28c-0.05 0.01-0.09 0.03-0.14 0.03h-4c-0.41 0-0.75-0.34-0.75-0.75s0.34-0.75 0.75-0.75h4c0.05 0 0.09 0.02 0.14 0.03 0.2-0.52 0.62-0.94 1.14-1.14-0.01-0.05-0.03-0.09-0.03-0.14v-3h1.5v3c0 0.05-0.02 0.09-0.03 0.14 0.52 0.2 0.94 0.62 1.14 1.14 0.05-0.01 0.09-0.03 0.14-0.03h4c0.41 0 0.75 0.34 0.75 0.75z" opacity=".4"/>
 <path d="m19 8.3v4.2c0 2.8-0.7 3.5-3.5 3.5h-7c-2.8 0-3.5-0.7-3.5-3.5v-7c0-2.8 0.7-3.5 3.5-3.5h1.05c1.05 0 1.28 0.31003 1.68 0.84003l1.05 1.4c0.27 0.35 0.42 0.56 1.12 0.56h2.1c2.8 0 3.5 0.7 3.5 3.5z"/>
</svg>

<svg width="24" height="24" viewBox="0 0 24 24"  xmlns="http://www.w3.org/2000/svg">
<path opacity="0.4" d="M18.75 21C18.75 21.41 18.41 21.75 18 21.75H14C13.95 21.75 13.91 21.73 13.86 21.72C13.57 22.47 12.85 23 12 23C11.15 23 10.43 22.47 10.14 21.72C10.09 21.73 10.05 21.75 10 21.75H6C5.59 21.75 5.25 21.41 5.25 21C5.25 20.59 5.59 20.25 6 20.25H10C10.05 20.25 10.09 20.27 10.14 20.28C10.34 19.76 10.76 19.34 11.28 19.14C11.27 19.09 11.25 19.05 11.25 19V16H12.75V19C12.75 19.05 12.73 19.09 12.72 19.14C13.24 19.34 13.66 19.76 13.86 20.28C13.91 20.27 13.95 20.25 14 20.25H18C18.41 20.25 18.75 20.59 18.75 21Z" />
<path d="M19 8.29999V12.5C19 15.3 18.3 16 15.5 16H8.5C5.7 16 5 15.3 5 12.5V5.5C5 2.7 5.7 2 8.5 2H9.54999C10.6 2 10.83 2.31003 11.23 2.84003L12.28 4.23999C12.55 4.58999 12.7 4.79999 13.4 4.79999H15.5C18.3 4.79999 19 5.49999 19 8.29999Z" />
</svg>
